X: 42902
T: Will You Come Down To Limerick
R: slip jig
M: 9/8
K: Gmajor
d|:cAG GDG G2d|cAG GDE =F2d|cAG GDG GAG|FAd fed cAF:|
def gaf g2f|def gag =fdc|Bcd =fge =f2e|cde =fed cAF|
def gaf g2f|def gag fga|bgb afa g2e|fed cAG FGA||
|:BGB AFA G2A|BAB GBd cAF|1 BGB AFA G2A|FAd fed cAF:|2 BDD ADD G2A|FAd fed cAd||

